app/img/icons/plus.svg

<svg width="14" height="15" viewBox="0 0 14 15" fill="none" xmlns="http://www.w3.org/2000/svg">
<path d="M14 8.99805H8V14.998H6V8.99805H0V6.99805H6V0.998047H8V6.99805H14V8.99805Z" fill="black"/>
</svg>

<svg width="14" height="15" fill="none" xmlns="http://www.w3.org/2000/svg"><path d="M14 8.998H8v6H6v-6H0v-2h6v-6h2v6h6v2z" fill="#000"/></svg>
